!!!!SEGMENT: pl-kk--kk-i-6--024-005_lilius-franciszek--missa-agnus-dei.krn
!!!cenid: 16xx:983
!!!COM: Lilius, Franciszek
!!!COM-rismID: pe30020509
!!!CDT: ~1600-1657
!!!CNT: Polish
!!!OPR: Missa
!!!OTL: Agnus Dei
!!!OMV: 005
!!!PDT:
!!!AGN: Sacred; Mass
!!!SMS-siglum: PL-Kk
!!!SMS-shelfmark: Kk.I.6
!!!SMS-shelfwork: 024-005 M
!!!SMS-variant:
!!!SMS-altvar:
!!!NIFC-rismSourceID: 1001135513
!!!NIFC-rismChildID: 1001135889
!!!NIFC-islandoraID: pl-kk:1634
!!!URL-pdf-islandora: https://repozytorium.nifc.pl/islandora/object/pl-kk%3A1634/datastream/PDF/view
!!!URL-scan: https://polish.musicsources.pl/pl/lokalizacje/galeria/rekopisy/6133 @EN{Scan on Polish Music Sources Website} @PL{Skany w portalu Dziedzictwo Muzyki Polskiej w otwartym dostępie}
!!!IIIF:
!!!ONB-nifc: UWAGA: C (skan 0017-0022, s. 31-41), T (skan 0120-0126, s. 45-56), B (skan 0231-0237, s. 43-54) Części Mszy: 1 Kyrie, 2. Et in terra, 3. Patrem, 4. Sanctus, 5. Agnus Dei
!!!AIN: 1 empty 1 tenor 1 vox
!!!key:
**kern	**text	**kern	**text	**kern	**text
*part3	*part3	*part2	*part2	*part1	*part1
*staff3	*staff3	*staff2	*staff2	*staff1	*staff1
*Iempty	*	*Itenor	*	*Ivox	*
*I"[Baſsus.]	*	*I"[Tenor.]	*	*I"[Cantus.]	*
*I'[B]	*	*I'[T]	*	*I'[C]	*
*clefF4	*	*clefC4	*	*clefC4	*
*k[b-]	*	*k[b-]	*	*k[b-]	*
*g:dor	*	*g:dor	*	*g:dor	*
*M2/1	*	*M2/1	*	*M2/1	*
*met(C|)	*	*met(C|)	*	*met(C|)	*
=1-	=1-	=1-	=1-	=1-	=1-
!!LO:TX:t=P:problem:all\center:global
!!LO:TX:t=P:problem:4/center:global
!LO:TX:t=P:problem=przed kluczem inicjał A	!	!LO:TX:t=P:problem=przed kluczem inicjał A	!	!LO:TX:t=P:problem=przed kluczem inicjał A	!
!LO:TX:t=P:problem=odnośnik do głosu tenorowego	!	!	!	!	!
1rD	.	1.G	A-	1r	.
1.GG	A-	.	.	1B-	A-
.	.	2G/	-Gnus	.	.
=2-	=2-	=2-	=2-	=2-	=2-
.	.	1B-	De-	2G/	-Gnus
2GG/	-Gnus	.	.	1d	De-
1D	De-	2A/	-i	.	.
.	.	2A/	qui	1A\	-i
=3-	=3-	=3-	=3-	=3-	=3-
1AA	-i	1.c	tol-	.	.
.	.	.	.	2A/	qui
1GG	qui	.	.	1d	tol-
.	.	2B-\	-lis	.	.
=4-	=4-	=4-	=4-	=4-	=4-
1D	tol-	4A/	pec-	2d\	-lis
.	.	4G/	.	.	.
.	.	4A/	.	2d\	pec-
.	.	4B-\	.	.	.
2C/	-lis	1c	.	2G/	-ca-
2AA/	pec-	.	.	2.A/	-ta-
=5-	=5-	=5-	=5-	=5-	=5-
2.BB-/	-ca-	2B-\	-ca-	.	.
.	.	.	.	4G/	.
.	.	2B-\	-ta	1G	-mun-
4C/	-ta	.	.	.	.
1D	mun-	1A	mun-	.	.
.	.	.	.	2F/	.
=6-	=6-	=6-	=6-	=6-	=6-
2GG/	-di	1B-	-di	2G,</	-di
1G	Mi-	.	.	1B-	Mi-
.	.	00r	.	.	.
*	*	*	*	*custos:B	*
!LO:TX:b:t=P:problem=♯ below	!	!	!	!	!
2F#X\	-ſe-	.	.	2A/	-se-
=7-	=7-	=7-	=7-	=7-	=7-
!	!	!	!	!LO:LB:g=original	!
2G\	-re-	.	.	4B-\	-re-
.	.	.	.	4c\	.
*custos:A	*	*	*	*	*
2B-\	-re	.	.	4d\	.
.	.	.	.	4e\	.
!LO:LB:g=original	!	!	!	!	!
1A	no-	.	.	2f\	.
.	.	.	.	2e\	-re
=8-	=8-	=8-	=8-	=8-	=8-
1D	-bis	.	.	2.d\	No-
.	.	.	.	4c\	.
*	*	*custos:G	*	*	*
2.G\	No-	1r	.	2.B-\	.
4Fny\	.	.	.	4A/	.
=9-	=9-	=9-	=9-	=9-	=9-
!	!	!LO:LB:g=original	!	!	!
1E-X	.	2r	.	1G	.
.	.	1G	Mi-	.	.
1D	-bis	.	.	1A	.
!	!	!LO:TX:t=P:♯below:problem	!	!	!
.	.	2F#X/	-se-	.	.
=10-	=10-	=10-	=10-	=10-	=10-
2r	.	2G/	-re-	1G	-bis
1G	Mi-	2B-\	-re	.	.
.	.	1A	no-	1r	.
!LO:TX:b:t=P:♯below:problem	!	!	!	!	!
2F#X\	-ſe-	.	.	.	.
=11-	=11-	=11-	=11-	=11-	=11-
2G\	-re-	1G	-bis	2r	.
2B-\	-re-	.	.	1d	Mi-
2.A\	No-	1rA	.	.	.
!	!	!	!	!LO:TX:b:t=P:problem=♯ below	!
.	.	.	.	2c#X\	-se-
4G\	.	.	.	.	.
=12-	=12-	=12-	=12-	=12-	=12-
2Fny\	.	2r	.	2d\	-re-
2D/	.	1d	Mi-	2f\	-re
1AA	.	.	.	1e	no-
!	!	!LO:TX:t=P:problem=# pod 1d	!	!	!
!	!	!LO:TX:b:t=P:problem=♯ below	!	!	!
.	.	2c#X\	-ſe-	.	.
=13-	=13-	=13-	=13-	=13-	=13-
2D,</	-bis	2d\	-re-	1d,<	-bis
1D	mi-	2f\	-re	.	.
*	*	*	*	*custos:F	*
.	.	1e	no-	1A	mi-
*custos:D	*	*	*	*	*
!LO:TX:b:t=P:problem=♯ below	!	!	!	!	!
2C#X/	-ſe-	.	.	.	.
=14-	=14-	=14-	=14-	=14-	=14-
!!LO:LB:g=original	!	!	!	!LO:LB:g=original	!
2D/	-re-	1d	-bis	1F	-se-
2F\	-re	.	.	.	.
1E-X	no-	2r	.	1G	-re-
*	*	*	*ij	*	*
.	.	2G/	Mi-	.	.
=15-	=15-	=15-	=15-	=15-	=15-
2.D/	.	2Fny/	-ſe-	1A	-re
.	.	2A/	.	.	.
4Cny/	.	.	.	.	.
!LO:N:acc=#	!	!	!	!	!
!LO:TX:b:t=P:problem=♯ below	!	!	!	!	!
2BBn/	.	1.G	-re-	2d\	No-
2C/	.	.	.	2cny\	.
=16-	=16-	=16-	=16-	=16-	=16-
1D	.	.	.	2B-\	.
*	*	*custos:G	*	*	*
!	!	!LO:TX:b:t=P:problem=♯ below	!	!	!
.	.	2F#X/	.	2.A/	.
!	!	!LO:LB:g=original	!	!	!
1E-X	.	2.G/	-re	.	.
.	.	.	.	4G/	.
.	.	.	.	1G/	.
.	.	4A/	.	.	.
=17-	=17-	=17-	=17-	=17-	=17-
0D	.	2B-\	no-	.	.
.	.	4A/	.	4F/	.
.	.	4G/	.	4E/	.
!	!	!	!	!LO:TX:a:t=P:problem=♯ above	!
.	.	1A	.	1F#X	.
=18-	=18-	=18-	=18-	=18-	=18-
!	!	!LO:N:acc=#	!	!	!
0GG	-bis.	0Bn	-bis	0G	-bis.
*	*	*	*Xij	*	*
=19-	=19-	=19-	=19-	=19-	=19-
*M2/1	*	*M2/1	*	*M2/1	*
*met(C|)	*	*met(C|)	*	*met(C|)	*
!LO:TX:t=P:problem=przed kluczem inicjał A	!	!LO:TX:t=P:problem=przed kluczem inicjał A	!	!LO:TX:t=P:problem=przed kluczem inicjał A	!
!!LO:LB:g=original	!	!LO:PB:g=original	!	!	!
!LO:TX:t=P:problem=odnośnik do głosu tenorowego	!	!	!	!	!
0r	.	1.G	A-	0r	.
!	!	!LO:TX:b:t=P:problem=♯ below	!	!	!
.	.	2F#X/	-Gnus	.	.
=20-	=20-	=20-	=20-	=20-	=20-
1rD	.	1B-y	De-	0r	.
1.D	A-	2A/	-i	.	.
.	.	2A/	qui	.	.
=21-	=21-	=21-	=21-	=21-	=21-
.	.	1.d	tol-	1r	.
2BB-y/	-Gnus	.	.	.	.
1E-X	De-	.	.	2r	.
.	.	2cny\	.	1G/	A-
=22-	=22-	=22-	=22-	=22-	=22-
2D/	-i	2B-\	-lis	.	.
!	!	!	!	!LO:TX:b:t=P:problem=♯ below	!
2D/	qui	2A/	pec-	2F#X/	-Gnus
1G	tol-	4G/	-ca-	1B-	De-
.	.	4A/	.	.	.
.	.	4B-\	.	.	.
.	.	4c\	.	.	.
=23-	=23-	=23-	=23-	=23-	=23-
2G\	-lis	2d\	.	4A/	-i
.	.	.	.	4A/	qui
2F\	pec-	2A/	-ta	2.d\	tol-
2E-X\	-ca-	1.G	mun-	.	.
.	.	.	.	4d\	-lis
2E-\	-ta	.	.	2c\	pec-
=24-	=24-	=24-	=24-	=24-	=24-
1D	mun-	.	.	2B-\	-ca-
*	*	*custos:G	*	*	*
!	!	!LO:TX:b:t=P:problem=♯ below	!	!	!
.	.	2F#X/	.	2A/	-ta
!	!	!LO:LB:g=original	!	!	!
1GG	-di	0G,<	-di	2B-\	mun-
.	.	.	.	2d\	.
=25-	=25-	=25-	=25-	=25-	=25-
2rBB	.	.	.	1c	-di
1C	A-	.	.	.	.
.	.	2D/	Qui	1r	.
*custos:E	*	*	*	*	*
!LO:TX:b:t=P:problem=♯ below	!	!	!	!	!
!LO:N:acc=#	!	!	!	!	!
2BBn/	-gnus	2.d\	tol-	.	.
=26-	=26-	=26-	=26-	=26-	=26-
!LO:LB:g=original	!	!	!	!	!
1E-X	De-	.	-lis	2r	.
.	.	4d\	.	.	.
.	.	2c\	pec-	2G/	Qui
2D/	-i	2B-\	-ca-	1d	tol-
2D/	qui	2A/	-ta	.	.
=27-	=27-	=27-	=27-	=27-	=27-
1G	tol-	2B-\	mun-	2d\	-lis
*	*	*	*	*custos:B	*
.	.	2c\	.	2c\	pec-
!	!	!	!	!LO:LB:g=original	!
2G\	-lis	1d	.	2B-\	-ca-
2F\	pec-	.	.	2A/	-ta
=28-	=28-	=28-	=28-	=28-	=28-
2E-X\	-ca-	2G,</	-di	1.B-	mun-
2D/	-ta	2B-\	pec-	.	.
1C	mun-	1.c	-ca-	.	.
.	.	.	.	4A/	.
.	.	.	.	4G/	.
=29-	=29-	=29-	=29-	=29-	=29-
!	!	!	!	!LO:TX:b:t=P:problem=♯ below	!
0D	.	.	.	2F#X/	.
.	.	2B-\	-ta	1G	.
.	.	1A	mun-	.	.
!	!	!	!	!LO:TX:b:t=P:problem=♯ below	!
.	.	.	.	2F#X/	.
=30-	=30-	=30-	=30-	=30-	=30-
2GG/	-di	2B-,<\	-di	1G	-di
1G	do-	1B-	Do-	.	.
.	.	.	.	2r	.
2D/	-na	2nyF/	-na	1d\	do-
=31-	=31-	=31-	=31-	=31-	=31-
2F\	No-	2A/	No-	.	-na
*custos:E	*	*custos:G	*	*	*
2F\	-bis	2A/	-bis	2A/	No-
!LO:LB:g=original	!	!LO:LB:g=original	!	!	!
4Eny\	pa-	1G	pa-	2c\	-bis
4D/	.	.	.	.	.
4E\	.	.	.	2c\	pa-
4F\	.	.	.	.	.
=32-	=32-	=32-	=32-	=32-	=32-
1G	.	1G	-cem	4B-\	.
.	.	.	.	4A/	.
.	.	.	.	4B-\	.
.	.	.	.	4c\	.
2D,</	-cem	2rF	.	1d	.
2D/	do-	1A\	do-	.	.
=33-	=33-	=33-	=33-	=33-	=33-
2AA/	-na	.	.	2c,<\	-cem
1C	No-	1E	-na	2c\	do-
.	.	.	.	1G	-na
2C/	-bis	1G/	no-	.	.
=34-	=34-	=34-	=34-	=34-	=34-
4BB-y/	pa-	.	.	2B-\	No-
4AA/	.	.	.	.	.
*	*	*	*	*custos:A	*
4BB-/	.	2G/,<	-bis	2B-\	-bis
4C/	.	.	.	.	.
!	!	!	!	!LO:LB:g=original	!
2.D/	.	4F/	pa-	4A/	pa-
.	.	4E/	.	4G/	.
.	.	4F/	.	4A/	.
8C/L	.	4G/	.	4B-\	.
8BB-/J	.	.	.	.	.
=35-	=35-	=35-	=35-	=35-	=35-
4AA/	.	2.A/	.	2.c\	.
4BB-/	.	.	.	.	.
2.C/	.	.	.	.	.
.	.	8G/L	.	8B-\L	.
.	.	8F/J,<	.	8A\J	.
.	.	4E/	.	4G/	.
8BB-/L	.	4F/	.	4A/	.
*custos:GG	*	*	*	*	*
8AA/J	.	.	.	.	.
!LO:PB:g=original	!	!	!	!	!
2.GG/	.	4G/	.	4B-\	.
.	.	4A/,<	.	4c\	.
=36-	=36-	=36-	=36-	=36-	=36-
.	.	4B-\	.	4d\	.
4AA/	.	4c\	.	4c\	.
4BB-/	.	2.d\	.	2B-\	.
4C/	.	.	.	.	.
2.D/	.	.	.	2A/	.
.	.	4e\	.	.	.
.	.	4f\	.	1d\	.
8C/L	.	8e\L	.	.	.
*	*	*custos:E	*	*	*
8BB-/J	.	8d\J	.	.	.
=37-	=37-	=37-	=37-	=37-	=37-
!	!	!LO:LB:g=original	!	!	!
1AA	.	1e	.	.	.
!	!	!	!	!LO:TX:b:t=P:problem=♯ below	!
.	.	.	.	2c#X\	.
1D	-cem	2.d\	.	2d,<\	-cem
.	.	.	.	1d\	do-
.	.	4c\	.	.	.
=38-	=38-	=38-	=38-	=38-	=38-
!LO:SIC:v:s=1.G	!	!	!	!	!
1.A	Do-	1B-	-cem	.	.
.	.	.	.	2G/	-na
.	.	2r	.	1B-	No-
2D/	-na	1d\	do-	.	.
=39-	=39-	=39-	=39-	=39-	=39-
1.F	no-	.	.	2A/	-bis
.	.	2A/	-na	1A	pa-
.	.	1.c	No-	.	.
2E-X\	-bis	.	.	2G/	.
=40-	=40-	=40-	=40-	=40-	=40-
!	!	!	!	!LO:TX:a:t=P:problem=♯ above	!
0D	pa-	.	.	2F#X/	.
.	.	2B-\	-bis	1G	.
.	.	1A	pa-	.	.
!	!	!	!	!LO:TX:a:t=P:problem=♯ above	!
.	.	.	.	2F#X/	.
=41-	=41-	=41-	=41-	=41-	=41-
!	!	!LO:N:acc=#	!	!	!
0GG	-cem	0Bn	-cem.	0G	-cem
!LO:LB:g=original	!	!LO:PB:g=original	!	!LO:PB:g=original	!
=-	=-	=-	=-	=-	=-
*-	*-	*-	*-	*-	*-
!!!system-decoration: [(s1,s2,s3)]
!!!RDF**kern: < = below
!!!RDF**kern: > = above
!!!ENC: Marta Chmielewska
!!!END: 2021-03-22
!!!ENC: Andrzej Borzym
!!!END: 2021-03-07
!!!YEC: Copyright 2022 Narodowy Instytut Fryderyka Chopina (https://polishscores.org)
!!!YEM: License CC-BY-4.0 (https://creativecommons.org/licenses/by/4.0)
